/* XPM */
static char *zoolrunner_32x32[] = {
/* columns rows colors chars-per-pixel */
"32 32 212 2 ",
"   c #010103",
".  c #01020B",
"X  c #0B0A0A",
"o  c #040815",
"O  c #01051B",
"+  c #010A1C",
"@  c #101217",
"#  c #000323",
"$  c #020D23",
"%  c #000729",
"&  c #010C2C",
"*  c #041026",
"=  c #04122D",
"-  c #09152D",
";  c #151722",
":  c #000D31",
">  c #081633",
",  c #0C1A34",
"<  c #051638",
"1  c #06183A",
"2  c #091C3C",
"3  c #131D32",
"4  c #1B263A",
"5  c #212429",
"6  c #302D26",
"7  c #37342D",
"8  c #232938",
"9  c #2E3239",
"0  c #37383C",
"q  c #0A1E43",
"w  c #081E48",
"e  c #0C2044",
"r  c #0C234C",
"t  c #142749",
"y  c #0B2655",
"u  c #132B57",
"i  c #1F345B",
"p  c #262E46",
"a  c #2A3548",
"s  c #343A45",
"d  c #27395B",
"f  c #163366",
"g  c #15356E",
"h  c #002B7D",
"j  c #06317B",
"k  c #09347C",
"l  c #223962",
"z  c #3D434E",
"x  c #394559",
"c  c #2D4268",
"v  c #364C74",
"b  c #484849",
"n  c #56554F",
"m  c #444954",
"M  c #424A5A",
"N  c #4A515C",
"B  c #5E5E5C",
"V  c #68655D",
"C  c #70695B",
"Z  c #485367",
"A  c #495975",
"S  c #535F72",
"D  c #5A616B",
"F  c #5F677A",
"G  c #676867",
"H  c #726E65",
"J  c #767369",
"K  c #636A78",
"L  c #7C7B74",
"P  c #77797A",
"I  c #847F71",
"U  c #888377",
"Y  c #968F7B",
"T  c #002F83",
"R  c #023284",
"E  c #0A3782",
"W  c #0C3985",
"Q  c #03348B",
"!  c #0C3B8B",
"~  c #103F8F",
"^  c #053A96",
"/  c #0D3E93",
"(  c #0F4097",
")  c #114195",
"_  c #1C4994",
"`  c #264F93",
"'  c #0841A6",
"]  c #154AA8",
"[  c #124DB6",
"{  c #1B52B4",
"}  c #1751BA",
"|  c #1D56BB",
" . c #2057BB",
".. c #235ABD",
"X. c #3A63AB",
"o. c #4A699B",
"O. c #6D7587",
"+. c #747C8C",
"@. c #68799C",
"#. c #4A6EA8",
"$. c #5676A7",
"%. c #1C56C0",
"&. c #275EC1",
"*. c #2C62C2",
"=. c #2E66C9",
"-. c #356AC6",
";. c #376AC7",
":. c #3F72CC",
">. c #4475CC",
",. c #4C7BCF",
"<. c #557FCA",
"1. c #4D7CD1",
"2. c #7D858F",
"3. c #6B85B1",
"4. c #5784D4",
"5. c #5D89D6",
"6. c #6388C6",
"7. c #7D9ACD",
"8. c #638CD5",
"9. c #6C93D9",
"0. c #7B9BD4",
"q. c #769ADB",
"w. c #7D9FDC",
"e. c #7DA2E4",
"r. c #8E8A84",
"t. c #86878B",
"y. c #938E81",
"u. c #939084",
"i. c #979389",
"p. c #9C9B94",
"a. c #A39B88",
"s. c #A29F96",
"d. c #A7A397",
"f. c #B4AD9B",
"g. c #B7B19C",
"h. c #818DA1",
"j. c #8594AC",
"k. c #8A9AB7",
"l. c #9AABBD",
"z. c #A8A9A8",
"x. c #B6B4A9",
"c. c #A4AABB",
"v. c #A8B2BC",
"b. c #BABBB7",
"n. c #C1BBA7",
"m. c #C4BEB4",
"M. c #C8C1AB",
"N. c #CAC7BA",
"B. c #D5CEB6",
"V. c #DAD6BD",
"C. c #E0D7BA",
"Z. c #829DCC",
"A. c #88A0C1",
"S. c #97ACCC",
"D. c #88A4D6",
"F. c #85A5DE",
"G. c #8DAADD",
"H. c #91A8D4",
"J. c #92ACDB",
"K. c #97B0DC",
"L. c #A8B5C8",
"P. c #B4BEC5",
"I. c #A4B6D4",
"U. c #A2B7DC",
"Y. c #A5B9DB",
"T. c #AABDDA",
"R. c #B0BED1",
"E. c #8BAAE1",
"W. c #89ADEE",
"Q. c #94AFE1",
"!. c #97B1E1",
"~. c #9BB5E3",
"^. c #98B8F3",
"/. c #A6BDE6",
"(. c #AABEE3",
"). c #BDC6CB",
"_. c #BAC5D4",
"`. c #BAC7D6",
"'. c #B4C4DA",
"]. c #BDCADB",
"[. c #B8C9E6",
"{. c #C6CAC7",
"}. c #C7CBC9",
"|. c #D2D6CC",
" X c #C5CFD5",
".X c #C2CDDA",
"XX c #C7D1D9",
"oX c #CAD3DB",
"OX c #D5D9D7",
"+X c #DCDEDA",
"@X c #DFE1DD",
"#X c #EBE3CC",
"$X c #F4EACB",
"%X c #E5E3D6",
"&X c #EBE6D6",
"*X c #E5E3DA",
"=X c #EDE8D9",
"-X c #F4EDD6",
";X c #F9EED1",
":X c #F3ECDA",
">X c #FFFAD7",
",X c #F7F2DD",
"<X c #FBF3D9",
"1X c #FFFDDB",
"2X c #C7D3E3",
"3X c #D4DCE1",
"4X c #EAEBE5",
"5X c #F0EEE5",
"6X c #EFF1EA",
"7X c #F4F1E4",
"8X c #FFFDE3",
"9X c #FCF9E8",
/* pixels */
"+ = = < < < < < < = = = = < = = = = > < = = = = < = = = < = = + ",
"< ! W E E E E E E W W W j h T R R R h j W W W W W E E E E W / < ",
"1 W k k j k j j k E h R ` $.l.{.{.P.3.` R h E k k k k k k k W 1 ",
"< W k W k E E W E R o.L.%X5X,X>X>X1X1X-X).#.Q E W E E E k k ! < ",
"< ! k W E W ! ! ~ l.@X*XOX+X%X&X&X=X>X1X1X1Xv.) R ! E W W E ! < ",
"1 ) ! W ! ) ! _ L.2X]..X+X-X%X>X8X#XV.u.J s.1X|._ ^ ~ ! ! ! / < ",
"< ) / ) ) / ) S.(.Y.].oX+X+X7XC.J M x q 4 U <X>X|._ / ) ) / ) < ",
"< ) ) ) ) / Z.(.K.Y.'.OXOX7XM.; r x a a f.V.<X;X1XP.^ ) ) ) ) < ",
"1 ] ) ) ^ #.[.G.Y.T. X X7Xg.@ # v A 9 B G L 1X;X;X1X$.^ ) ( ) < ",
"1 ] ) ) ) H.E.K.U.].XX3XB.X . o $ & 9 s D $X<X<X;X>X}.( ) ) ] < ",
"1 ] ) ^ X./.w.G.T.XX`.5Xn   = q 5 Y B.$X8X1X<X<X<X<X>X#.^ ] ] < ",
"< { { ' 6.~.w.J.'.'.oXN.@ O d D B.9X8X$Xu.a.;X<X-X=X1XA.' { { < ",
"< | { ] H.~.w.U.Y.'.4Xd.  = A a.&X4Xn.8 e b g.1X&X=X>X).[ { { < ",
"1 | | [ H.!.F.G.T.'.3Xb.. + d P u.>Xu.# F u.f.7X=X*X>X}.[  .| < ",
"< ....} J.~.F.G.U.T..X*X7   = c K u.H # K Y f.5X&X%X:X).} .. .< ",
"< &.*.| J./.F.G.J.Y.`.3Xx.    $ u v P G B U x.7X%X%X:X).| *...< ",
"< *.;...0.[.F.F.K.Y.'. X6XN.6   . = t A 2.C f.5X&X*X>XS.%.;.*.< ",
"< *.;.&.<.[.E.F.J.K.U.].b.P 9 4 7     & c +.a.:X*X*X<X6.&.;.*.< ",
"< ;.:.;.;.Y.~.G.G.J.K.[.z . = v Z d.7   + l D n.5X=X+X;.;.;.;.< ",
"< ;.>.>.;.8.[.Q.!./.(.2Xx & 3 r.M }.s.O   + l r.=X>X7.=.>.>.;.< ",
"< :.4.,.1.:.J.(./.2.p v.M & 3 r.I {.p.: u   1 S ;X X:.,.,.4.>.< ",
"< 1.5.5.5.5.4.[.c.o 8 z.x & 3 r.U x.B : O.s . N %X8.5.5.8.8.,.< ",
"< Z.T.q.9.q.9.e.j.# b b.M # 3 L U b O 1 P y.X P W.9.q.9.8.F.D.< ",
"< R.,XOXw.q.E.^.3.O m d.a 1 , H U 9 O 2 P U n K.3.7.e.w.].*X`.< ",
"< 0..X-XoX[.k.Z +.O m 0 & , < G s.b . < G J k.@.o N L.OX+XXXD.< ",
"< 9.~.'.XX7Xs p N < * = y e > B d.f.5 & N u.t.O.$ J x.2XK.!.9.< ",
"< H.(.K.[.{.8 9 4 = + u q < 3 D U r.H . z i.L s - J k.W.G./.0.< ",
"< I.+X+XP 4 . + = o e 2 - - r t z.z.i.H 5 t.r.; - V 8 h.4X@XI.< ",
"< `.9Xi.# O r g r u f u g r < i Z i.J i.V x x.L   K m 4 N.5X`.< ",
"< b.B = . , f - r > f - e - q r o U m.n p.n m z.C @ N o a U }.< ",
"1 d < < < y < = = r 2 = q $ q 2 w f @.d d j.Z x @.4 d e q r c 2 ",
"+ < < < < = < < < < < < = < < < < < & < < : < & % < < < < < : + "
};
