/* XPM */
static char *zoolrunner_16x16[] = {
/* columns rows colors chars-per-pixel */
"16 16 182 2 ",
"   c #000003",
".  c #07080E",
"X  c #0A0A0D",
"o  c #000717",
"O  c #0B0E16",
"+  c #000719",
"@  c #060B19",
"#  c #0E131C",
"$  c #000923",
"%  c #071126",
"&  c #081324",
"*  c #06152F",
"=  c #0B1628",
"-  c #111826",
";  c #101A2C",
":  c #041536",
">  c #0D1B33",
",  c #041739",
"<  c #151F30",
"1  c #111F38",
"2  c #152033",
"3  c #202735",
"4  c #252B33",
"5  c #2C2D32",
"6  c #2D313B",
"7  c #313130",
"8  c #34383E",
"9  c #393939",
"0  c #000F46",
"q  c #001045",
"w  c #051D4B",
"e  c #081F4C",
"r  c #07204E",
"t  c #0E234A",
"y  c #1F2C46",
"u  c #062152",
"i  c #0D2657",
"p  c #07225D",
"a  c #0B2559",
"s  c #0F295D",
"d  c #1D2F50",
"f  c #232E41",
"g  c #2E3647",
"h  c #2E3845",
"j  c #203049",
"k  c #373D47",
"l  c #3A3E45",
"z  c #373E4A",
"x  c #2A3A56",
"c  c #0B2865",
"v  c #052568",
"b  c #082869",
"n  c #102A62",
"m  c #19346E",
"M  c #243A69",
"N  c #2A3E6A",
"B  c #263E73",
"V  c #3C434F",
"C  c #32446C",
"Z  c #314675",
"A  c #394D77",
"S  c #50514F",
"D  c #4C4D50",
"F  c #4F555C",
"G  c #585652",
"H  c #5A5C5D",
"J  c #64655F",
"K  c #6A685F",
"L  c #414D6A",
"P  c #455162",
"I  c #555B63",
"U  c #535A6B",
"Y  c #485678",
"T  c #626465",
"R  c #676A6D",
"E  c #706D64",
"W  c #747166",
"Q  c #616777",
"!  c #6F6F72",
"~  c #6C7071",
"^  c #787976",
"/  c #7A7C7C",
"(  c #827D6D",
")  c #827E72",
"_  c #848072",
"`  c #83837A",
"'  c #8B8778",
"]  c #918E7F",
"[  c #002B83",
"{  c #07368B",
"}  c #0F3D90",
"|  c #093C9A",
" . c #103E92",
".. c #0F429E",
"X. c #13439B",
"o. c #254D96",
"O. c #284F95",
"+. c #214B99",
"@. c #0F42A1",
"#. c #1144A2",
"$. c #3662B9",
"%. c #576788",
"&. c #41639E",
"*. c #6D7583",
"=. c #787D85",
"-. c #5976A8",
";. c #637FAE",
":. c #4C74C0",
">. c #547BD5",
",. c #748EB5",
"<. c #5B82D6",
"1. c #5981D9",
"2. c #7A8FC1",
"3. c #7B95CD",
"4. c #6085D3",
"5. c #6086DA",
"6. c #6C8DDA",
"7. c #7B97D4",
"8. c #7393DE",
"9. c #868683",
"0. c gray54",
"q. c #939083",
"w. c #999483",
"e. c #939593",
"r. c #94989A",
"t. c #A09C93",
"y. c #A1A098",
"u. c #A8A599",
"i. c #B2AC9B",
"p. c #8E99AE",
"a. c #AAAFAD",
"s. c #B8B5A6",
"d. c #B4B8B5",
"f. c #C3C3B8",
"g. c #D6CFBB",
"h. c #D7D0BB",
"j. c #8C9EC3",
"k. c #879BCF",
"l. c #8DA6D6",
"z. c #97AED6",
"x. c #9FAED1",
"c. c #91A6D8",
"v. c #9DB2D6",
"b. c #A0B1C4",
"n. c #ABB8DC",
"m. c #B2BDDA",
"M. c #83A0E1",
"N. c #A1B6EB",
"B. c #BCC3D5",
"V. c #B6C0D8",
"C. c #BFC7DF",
"Z. c #B9C3E0",
"A. c #C2CBCF",
"S. c #D9D6C0",
"D. c #DCD8C3",
"F. c #C0C6D7",
"G. c #C7CBD0",
"H. c #C3CBDB",
"J. c #CCCFDF",
"K. c #DBDCDE",
"L. c #EAE4CE",
"P. c #EEEAD5",
"I. c #E3E4D8",
"U. c #ECE8D8",
"Y. c #F0ECDF",
"T. c #F8EEDA",
"R. c #FFF5D2",
"E. c #F5F2DE",
"W. c #F8F3D8",
"Q. c #FFFBDE",
"!. c #C5CEE5",
"~. c #CACFE3",
"^. c #D3D7E1",
"/. c #DCDEE1",
"(. c #F1EFE6",
"). c #F0EFEA",
"_. c #F3F0E0",
"`. c #F9F6E1",
"'. c #FFFFE6",
"]. c #F3F2EA",
"[. c #E7E9F2",
"{. c #ECEFF8",
/* pixels */
": u w r w q q t t q 0 w e w u , ",
"u #.} {  .;.b.I._.G.,.+.{  .| p ",
"u X.{ O.G.W.'.W.] ) K D.-.[ X.i ",
"i ..o.F.K._.S.5 z 6 T P.`.&.| s ",
"i @.j.^.K.L.4 $ g G ` `.'.A.@.s ",
"a $.H.H.]._ $ z ' L.s.f.'.W.:.c ",
"a 7.J.V.].W $ ^ R.` = ! E.'.z.b ",
"p c.Z.m./.h.X y 9.S g t.P.Q.v.v ",
"n 7.C.n.B.(.w.  % U ` ^ U.T.l.m ",
"M <.m.n.!.).H > 9 O g ~ g.Y.4.B ",
"N 1.3.~.*.0.V j i.J   < q.C.>.Z ",
"C 8.5.x.# ! k f ( l x X e.M.6.A ",
"L N.2.%.3 D = z q.. P E p.k.N.Y ",
"U {.T O 2 = = h d.9 F / < =.[.Q ",
"R ` @ & > d 1 < r.y.! a.7 < u./ ",
"- o @ * $ : * = f I 8 R 9 + ; 4 "
};
